svgs/sharp-light/link-simple.svg

<svg xmlns="http://www.w3.org/2000/svg" viewBox="0 0 576 512"><!--! Font Awesome Pro 6.6.0 by @fontawesome - https://fontawesome.com License - https://fontawesome.com/license (Commercial License) Copyright 2024 Fonticons, Inc. --><path d="M0 256C0 167.6 71.6 96 160 96l80 0 16 0 0 32-16 0-80 0C89.3 128 32 185.3 32 256s57.3 128 128 128l80 0 16 0 0 32-16 0-80 0C71.6 416 0 344.4 0 256zm576 0c0 88.4-71.6 160-160 160l-80 0-16 0 0-32 16 0 80 0c70.7 0 128-57.3 128-128s-57.3-128-128-128l-80 0-16 0 0-32 16 0 80 0c88.4 0 160 71.6 160 160zM152 240l272 0 16 0 0 32-16 0-272 0-16 0 0-32 16 0z"/></svg>

<svg xmlns="http://www.w3.org/2000/svg" viewBox="0 0 576 512"><!--! Font Awesome Pro 6.4.0 by @fontawesome - https://fontawesome.com License - https://fontawesome.com/license (Commercial License) Copyright 2023 Fonticons, Inc. --><path d="M0 256C0 167.6 71.6 96 160 96h80 16v32H240 160C89.3 128 32 185.3 32 256s57.3 128 128 128h80 16v32H240 160C71.6 416 0 344.4 0 256zm576 0c0 88.4-71.6 160-160 160H336 320V384h16 80c70.7 0 128-57.3 128-128s-57.3-128-128-128H336 320V96h16 80c88.4 0 160 71.6 160 160zM152 240H424h16v32H424 152 136V240h16z"/></svg>
